X: 76
T: Fangniu diao
L: 1/16
M: 2/4
K: F
c2 c f c2 c2 [I:setbarnb 1]| 
B c B GF4 | 
G2 c c F2 G2 | 
B2 B DC4 | 
F2 F F E2 F2 | 
E2 D CB4 | 
c2 c c2< F2 G | 
B2> c2 G2 F D | 
C2> B2 G2 F D | 
C8 |]

@@@ Tune index: 8950
